X:1
T:When I Get Home
T:When I Get Home
T:Charles Austin Miles
T:Charles Austin Miles, 1900
T:Public Domain Courtesy of the Cyber Hymnal™
T:Public Domain Courtesy of the Cyber Hymnal™
C:Charles Austin Miles
Z:Public Domain
Z:Courtesy of the Cyber Hymnal™
%%score ( 1 2 ) 3
L:1/8
Q:1/4=91
M:4/4
K:C
V:1 treble 
V:2 treble 
V:3 bass 
V:1
 CC[CE][CE] [EG][EG][Ec][FA] | [EG]2 [CE]2 [B,D]4 | CC[CE][CE] [EG][EG][Ec][Ec] | %3
w: 1.~I shall wear a gold- en crown, When|I get home;|I shall lay my bur- dens down, When|
w: 2.~All the dark- ness will be past, When|I get home;|I shall see the light at last, When|
w: 3.~I shall see my Sav- ior’s face, When|I get home;|Sing a- gain of sav- ing grace, When|
 [DB]2 [CA]2 [B,G]4 | [DF][DF][DF]D [CE] [EG]3 | [DF][DF][DF]D [CE] [EG]3 | %6
w: I get home;|Clad in robes of glo- ry,|I shall sing the sto- ry|
w: I get home;|Light from Hea- ven stream- ing,|O’er my path- way beam- ing,|
w: I get home;|I shall stand be- fore Him;|Glad- ly I’ll a- dore Him;|
 [Ee]>[Ed] [Ec][Ec] [Fd] [Fc]2 [FA] | [EG]2 [FB]2 [Ec]3 ||"^Refrain" [CE] | G2 G2 G3 [EG] | %10
w: Of the Lord who bought me, When|I get home.|||
w: Ev- er guides me on- ward Till|I get home.|When|I get home, When|
w: Ev- er to be with Him, When|I get home.|||
 c2 c2 c3 [Ec] | [Ee]>[Ed] [Ec][Ec] [Fd] [Fc]2 [FA] | [EG]2 [CE]2 [B,D]3 [CE] | G2 G2 G3 [EG] | %14
w: ||||
w: I get home, All|sor- row will be o- ver, When|I get home; When|I get home, When|
w: ||||
 c2 c2 c3 [Ec] | [Ee]>[Ed] [Ec][Ec] [Fd] [Fc]2 [FA] | [EG]2 [FB]2 [Ec]4 |] %17
w: |||
w: I get home, All|sor- row will be o- ver, When|I get home.|
w: |||
V:2
 CC x6 | x8 | CC x6 | x8 | x3 D x4 | x3 D x4 | x8 | x7 || x | (EE) (DF) (EEE) x | %10
 (EE) (FF) (EEE) x | x8 | x8 | (EE) (DF) (EEE) x | (EE) (FF) (EEE) x | x8 | x8 |] %17
V:3
 [C,E,][C,E,][C,G,][C,G,] [C,C][C,C][C,G,][C,C] | [C,C]2 [C,G,]2 [G,,G,]4 | %2
w: ~ ~ ~ ~ ~ ~ ~ ~|~ ~ ~|
 [C,E,][C,E,][C,G,][C,G,] [C,C][C,C][C,G,][C,G,] | [D,G,]2 [D,^F,]2 [G,,G,]4 | %4
w: ~ ~ ~ ~ ~ ~ ~ ~|~ ~ ~|
 [G,B,][G,B,][G,B,][G,B,] [C,G,] [C,C]3 | [G,B,][G,B,][G,B,][G,B,] [C,G,] [C,C]3 | %6
w: ~ ~ ~ ~ ~ ~|~ ~ ~ ~ ~ ~|
 [C,G,]>[C,G,] [C,_B,][C,B,] [F,A,] [F,A,]2 [F,C] | [G,C]2 [G,D]2 [C,C]3 || [C,G,] | %9
w: ~ ~ ~ ~ ~ ~ ~|~ ~ ~|When|
 [C,C][C,C][G,,B,][G,,D] [C,C][C,C][C,C][C,C] | [C,G,][C,G,][F,A,][F,A,] [C,G,][C,G,][C,G,][C,G,] | %11
w: I get home, when I get home, When|I get home, when I get home, ~|
 [C,G,]>[C,G,] [C,_B,][C,B,] [F,A,] [F,A,]2 [F,C] | [C,C]2 [C,G,]2 [G,,G,]3 [C,G,] | %13
w: ~ ~ ~ ~ ~ ~ ~|~ ~ ~ When|
 [C,C][C,C][G,,B,][G,,D] [C,C][C,C][C,C][C,C] | [C,G,][C,G,][F,A,][F,A,] [C,G,][C,G,][C,G,][C,G,] | %15
w: I get home, when I get home, When|I get home, when I get home, *|
 [C,G,]>[C,G,] [C,_B,][C,B,] [F,A,] [F,A,]2 [F,C] | [G,C]2 [G,D]2 [C,C]4 |] %17
w: ||

